src/assets/img/shapes/blurs/blur-2.svg

<svg viewBox="0 0 1313 768" fill="none" xmlns="http://www.w3.org/2000/svg"><path d="M442.794 768c163.088 0 305.568-88.227 382.317-219.556l.183.556s.249-.749.762-2.181a440.362 440.362 0 0033.192-71.389C901.996 397.81 989.306 277.09 1144.29 206l-.92-.693C1230.34 171.296 1295.63 94.049 1312.83 0H1.294v295.514c-.663 9.909-1 19.908-1 29.986 0 244.386 198.114 442.5 442.5 442.5z" fill="currentColor"/></svg>

<svg viewBox="0 0 1313 768" fill="none" xmlns="http://www.w3.org/2000/svg">
  <path d="M442.794 768C605.882 768 748.362 679.773 825.111 548.444L825.294 549C825.294 549 825.543 548.251 826.056 546.819C839.139 524.212 850.279 500.339 859.248 475.43C901.996 397.81 989.306 277.09 1144.29 206L1143.37 205.307C1230.34 171.296 1295.63 94.049 1312.83 0H1.29419V295.514C0.631105 305.423 0.294189 315.422 0.294189 325.5C0.294189 569.886 198.408 768 442.794 768Z" fill="currentColor"/>
</svg>
